papirus/48x48/apps/keurocalc.svg

<svg height="48" width="48" xmlns="http://www.w3.org/2000/svg" xmlns:xlink="http://www.w3.org/1999/xlink"><clipPath id="a"><circle cx="286" cy="26" r="10"/></clipPath><circle cx="24" cy="24" fill="#578cff" r="20"/><circle clip-path="url(#a)" cx="286" cy="26" opacity="0" r="10" stroke-width=".45455" transform="matrix(2 0 0 2 -548 -28)"/><circle clip-path="url(#a)" cx="286" cy="26" opacity="0" r="10" stroke-width=".90908998" transform="matrix(2 0 0 2 -548 -28)"/><path d="m24 4c-11.079 0-19.998 8.92-19.998 20 0 .16772-.004.33329 0 .5.2642-10.846 9.087-19.5 19.998-19.5 10.911 0 19.734 8.6536 19.998 19.5.004-.16671 0-.33228 0-.5 0-11.08-8.919-20-19.998-20z" fill="#fff" opacity=".2"/><path d="m43.979 23.418a20 20 0 0 1 -19.979 19.582 20 20 0 0 1 -19.978-19.418 20 20 0 0 0 -.022.418 20 20 0 0 0  20 20 20 20 0 0 0  20-20 20 20 0 0 0 -.021-.582z" opacity=".3"/><path d="m26 12a13 13 0 0 0 -12.352 9h-2.648l-1 3h3.043a13 13 0 0 0 -.043 1 13 13 0 0 0  .049 1h-1.049l-1 3h2.639a13 13 0 0 0 12.361 9 13 13 0 0 0  10.24-5h-4.256a10 10 0 0 1 -5.984 2 10 10 0 0 1 -9.152-6h13.152l1-3h-14.939a10 10 0 0 1 -.061-1 10 10 0 0 1  .051-1h14.949l1-3h-15.16a10 10 0 0 1 9.16-6 10 10 0 0 1  5.98 2h4.249a13 13 0 0 0 -10.229-5z" opacity=".2"/><path d="m26 11a13 13 0 0 0 -12.352 9h-2.648l-1 3h3.043a13 13 0 0 0 -.043 1 13 13 0 0 0  .049 1h-1.049l-1 3h2.639a13 13 0 0 0 12.361 9 13 13 0 0 0  10.24-5h-4.256a10 10 0 0 1 -5.984 2 10 10 0 0 1 -9.152-6h13.152l1-3h-14.939a10 10 0 0 1 -.061-1 10 10 0 0 1  .051-1h14.949l1-3h-15.16a10 10 0 0 1 9.16-6 10 10 0 0 1  5.98 2h4.249a13 13 0 0 0 -10.229-5z" fill="#fff"/></svg>

<?xml version="1.0" encoding="UTF-8" standalone="no"?>
<!-- Created with Inkscape (http://www.inkscape.org/) -->

<svg
   xmlns:dc="http://purl.org/dc/elements/1.1/"
   xmlns:cc="http://creativecommons.org/ns#"
   xmlns:rdf="http://www.w3.org/1999/02/22-rdf-syntax-ns#"
   xmlns:svg="http://www.w3.org/2000/svg"
   xmlns="http://www.w3.org/2000/svg"
   xmlns:sodipodi="http://sodipodi.sourceforge.net/DTD/sodipodi-0.dtd"
   xmlns:inkscape="http://www.inkscape.org/namespaces/inkscape"
   id="svg2817"
   height="48"
   width="48"
   version="1.0"
   inkscape:version="0.91 r13725"
   sodipodi:docname="keurocalc.svg">
  <sodipodi:namedview
     pagecolor="#ffffff"
     bordercolor="#666666"
     borderopacity="1"
     objecttolerance="10"
     gridtolerance="10"
     guidetolerance="10"
     inkscape:pageopacity="0"
     inkscape:pageshadow="2"
     inkscape:window-width="1535"
     inkscape:window-height="876"
     id="namedview14"
     showgrid="false"
     inkscape:zoom="3.2796268"
     inkscape:cx="24"
     inkscape:cy="24"
     inkscape:window-x="65"
     inkscape:window-y="24"
     inkscape:window-maximized="1"
     inkscape:current-layer="svg2817" />
  <metadata
     id="metadata57">
    <rdf:RDF>
      <cc:Work
         rdf:about="">
        <dc:format>image/svg+xml</dc:format>
        <dc:type
           rdf:resource="http://purl.org/dc/dcmitype/StillImage" />
        <dc:title></dc:title>
      </cc:Work>
    </rdf:RDF>
  </metadata>
  <defs
     id="defs2819">
    <clipPath
       id="clipPath4186"
       clipPathUnits="userSpaceOnUse">
      <circle
         id="path4188"
         style="color:#000000"
         cx="286"
         cy="26"
         r="10"
         fill="url(#linearGradient4190)" />
    </clipPath>
  </defs>
  <circle
     id="path4230"
     style="color:#000000;fill:#578cff;fill-opacity:1"
     cy="24"
     cx="24"
     r="20" />
  <circle
     id="path4240"
     style="color:#000000;opacity:0;stroke-width:0.45455"
     clip-path="url(#clipPath4186)"
     transform="matrix(2,0,0,2,-548,-28)"
     cy="26"
     cx="286"
     r="10" />
  <circle
     id="path4242"
     style="color:#000000;opacity:0;stroke-width:0.90908998"
     clip-path="url(#clipPath4186)"
     transform="matrix(2,0,0,2,-548,-28)"
     cy="26"
     cx="286"
     r="10" />
  <path
     style="opacity:0.2;fill:#ffffff"
     inkscape:connector-curvature="0"
     id="rect3436"
     d="M 24,4 C 12.921,4 4.002,12.92 4.002,24 c 0,0.16772 -0.004,0.33329 0,0.5 C 4.2662,13.654 13.089,5 24,5 c 10.911,0 19.734,8.6536 19.998,19.5 0.004,-0.16671 0,-0.33228 0,-0.5 C 43.998,12.92 35.079,4 24,4 Z" />
  <path
     inkscape:connector-curvature="0"
     id="circle4330"
     style="color:#000000;opacity:0.3"
     d="M 43.979,23.418 A 20,20 0 0 1 24,43 20,20 0 0 1 4.022,23.582 20,20 0 0 0 4,24 20,20 0 0 0 24,44 20,20 0 0 0 44,24 20,20 0 0 0 43.979,23.418 Z" />
  <path
     d="M 26,12 A 13,13 0 0 0 13.648,21 L 11,21 l -1,3 3.043,0 A 13,13 0 0 0 13,25 13,13 0 0 0 13.049,26 L 12,26 l -1,3 2.639,0 A 13,13 0 0 0 26,38 13,13 0 0 0 36.24,33 l -4.256,0 A 10,10 0 0 1 26,35 10,10 0 0 1 16.848,29 L 30,29 31,26 16.061,26 A 10,10 0 0 1 16,25 10,10 0 0 1 16.051,24 L 31,24 32,21 16.84,21 a 10,10 0 0 1 9.16,-6 10,10 0 0 1 5.98,2 l 4.249,0 A 13,13 0 0 0 26,12 Z"
     id="path4148"
     style="opacity:0.2;fill:#000000;fill-opacity:1"
     inkscape:connector-curvature="0" />
  <path
     inkscape:connector-curvature="0"
     style="fill:#ffffff;fill-opacity:1"
     id="path4687"
     d="M 26,11 A 13,13 0 0 0 13.648,20 L 11,20 l -1,3 3.043,0 A 13,13 0 0 0 13,24 13,13 0 0 0 13.049,25 L 12,25 l -1,3 2.639,0 A 13,13 0 0 0 26,37 13,13 0 0 0 36.24,32 l -4.256,0 A 10,10 0 0 1 26,34 10,10 0 0 1 16.848,28 L 30,28 31,25 16.061,25 A 10,10 0 0 1 16,24 10,10 0 0 1 16.051,23 L 31,23 32,20 16.84,20 a 10,10 0 0 1 9.16,-6 10,10 0 0 1 5.98,2 l 4.249,0 A 13,13 0 0 0 26,11 Z" />
</svg>
